X: 1082
T: Kiss Me Sweetheart
R:double jig
N:"collected by J.O'Neill"
B:O'Neill's 1082
Z:Transcribed by henrik.norbeck@mailbox.swipnet.se
M:6/8
L:1/8
K:G
c|B2G GBG|A2B c2e|B2G GBG|ecA ecA|
B2G GBG|A2B c2e|dBd gfe|dBG G2:|
c|B2c d2g|ece d2g|BGB dBG|ecA ecA|
B2c d2g|ece d2c|Bcd gfe|dBG G2:|


